images_sukapura_svg/cmd/sc_graphicfilterremovenoise.svg

<svg viewBox="0 0 16 16" xmlns="http://www.w3.org/2000/svg" xmlns:xlink="http://www.w3.org/1999/xlink"><linearGradient id="a" gradientUnits="userSpaceOnUse" x1="-24.694607" x2="-19.690864" y1="9.213546" y2="9.213546"><stop offset="0" stop-color="#0040dd"/><stop offset="1" stop-color="#0a84ff"/></linearGradient><path d="m5 3v2l2.015625-1 .5332031-2z" fill="#808080"/><path d="m4 12v2h.3476562l.5332032-2z" fill="#808080"/><path d="m5.5021794 15.493207 3.9999996-15" fill="none" stroke="url(#a)" stroke-linecap="round" stroke-linejoin="round"/><g fill="#69696e"><path d="m2 2-2 .8007812v2l2-.8007812z"/><path d="m3 7v2l2.9492188-1 .0507812-.1933594v-1.8066406z"/><path d="m2 10-2 .666016v2l2-.666016z"/><path d="m14 10h2v2h-2z"/><path d="m11 6h2v2h-2z"/><path d="m11 14h2v2h-2z"/><path d="m13 0h2v2h-2z"/><path d="m2 1 3-1v2l-3 1z"/><path d="m2 6-2 .6660156v2l2-.6660156z"/><path d="m2 14-2 .666016v2l2-.666016z"/></g></svg>

<?xml version="1.0" encoding="UTF-8" standalone="no"?>
<svg
   xmlns:dc="http://purl.org/dc/elements/1.1/"
   xmlns:cc="http://creativecommons.org/ns#"
   xmlns:rdf="http://www.w3.org/1999/02/22-rdf-syntax-ns#"
   xmlns:svg="http://www.w3.org/2000/svg"
   xmlns="http://www.w3.org/2000/svg"
   xmlns:xlink="http://www.w3.org/1999/xlink"
   xmlns:sodipodi="http://sodipodi.sourceforge.net/DTD/sodipodi-0.dtd"
   xmlns:inkscape="http://www.inkscape.org/namespaces/inkscape"
   viewBox="0 0 16 16"
   version="1.1"
   id="svg32"
   sodipodi:docname="sc_graphicfilterremovenoise.svg"
   inkscape:version="0.92.3 (unknown)">
  <metadata
     id="metadata38">
    <rdf:RDF>
      <cc:Work
         rdf:about="">
        <dc:format>image/svg+xml</dc:format>
        <dc:type
           rdf:resource="http://purl.org/dc/dcmitype/StillImage" />
        <dc:title></dc:title>
      </cc:Work>
    </rdf:RDF>
  </metadata>
  <defs
     id="defs36">
    <linearGradient
       gradientTransform="translate(-29.694915,1.220339)"
       id="a-6"
       gradientUnits="userSpaceOnUse"
       x1="14"
       x2="13.79661"
       y1="22"
       y2="2.1355929">
      <stop
         offset="0"
         stop-color="#0040dd"
         id="stop2" />
      <stop
         offset="1"
         stop-color="#0a84ff"
         id="stop4" />
    </linearGradient>
    <linearGradient
       inkscape:collect="always"
       xlink:href="#a-6"
       id="linearGradient881"
       x1="5.0003076"
       y1="7.993207"
       x2="10.004051"
       y2="7.993207"
       gradientUnits="userSpaceOnUse" />
  </defs>
  <sodipodi:namedview
     pagecolor="#ffffff"
     bordercolor="#666666"
     borderopacity="1"
     objecttolerance="10"
     gridtolerance="10"
     guidetolerance="10"
     inkscape:pageopacity="0"
     inkscape:pageshadow="2"
     inkscape:window-width="1366"
     inkscape:window-height="706"
     id="namedview34"
     showgrid="true"
     inkscape:zoom="10.429825"
     inkscape:cx="6.6332624"
     inkscape:cy="10.884042"
     inkscape:window-x="0"
     inkscape:window-y="0"
     inkscape:window-maximized="1"
     inkscape:current-layer="svg32">
    <inkscape:grid
       type="xygrid"
       id="grid845"
       spacingx="0.5"
       spacingy="0.5"
       empspacing="2" />
  </sodipodi:namedview>
  <path
     d="M 5,3 V 5 L 7.015625,4 7.5488281,2 Z"
     id="path4"
     inkscape:connector-curvature="0"
     style="fill:#808080"
     sodipodi:nodetypes="ccccc" />
  <path
     d="m4 12v2h .3476562l.5332032-2z"
     fill="#808080"
     id="path6" />
  <path
     d="m5.5021794 15.493207 3.9999996-15"
     fill="none"
     stroke="#4d82b8"
     stroke-linecap="round"
     stroke-linejoin="round"
     id="path8"
     style="stroke:url(#linearGradient881)" />
  <g
     fill="#808080"
     id="g30"
     style="fill:#69696e;fill-opacity:1">
    <path
       style="fill:#69696e;fill-opacity:1"
       d="M 2 2 L 0 2.8007812 L 0 4.8007812 L 2 4 L 2 2 z "
       id="path10" />
    <path
       d="M 3,7 V 9 L 5.9492188,8 6,7.8066406 V 6 Z"
       id="path12"
       style="fill:#69696e;fill-opacity:1"
       inkscape:connector-curvature="0"
       sodipodi:nodetypes="cccccc" />
    <path
       style="fill:#69696e;fill-opacity:1"
       d="M 2 10 L 0 10.666016 L 0 12.666016 L 2 12 L 2 10 z "
       id="path14" />
    <path
       d="m14 10h2v2h-2z"
       id="path16"
       style="fill:#69696e;fill-opacity:1" />
    <path
       d="m11 6h2v2h-2z"
       id="path18"
       style="fill:#69696e;fill-opacity:1" />
    <path
       d="m11 14h2v2h-2z"
       id="path20"
       style="fill:#69696e;fill-opacity:1" />
    <path
       d="m13 0h2v2h-2z"
       id="path22"
       style="fill:#69696e;fill-opacity:1" />
    <path
       d="M 2,1 5,0 V 2 L 2,3 Z"
       id="path24"
       style="fill:#69696e;fill-opacity:1"
       inkscape:connector-curvature="0"
       sodipodi:nodetypes="ccccc" />
    <path
       style="fill:#69696e;fill-opacity:1"
       d="M 2 6 L 0 6.6660156 L 0 8.6660156 L 2 8 L 2 6 z "
       id="path26" />
    <path
       style="fill:#69696e;fill-opacity:1"
       d="M 2 14 L 0 14.666016 L 0 16.666016 L 2 16 L 2 14 z "
       id="path28" />
  </g>
</svg>
